img/image/content/socials-1.svg

<svg xmlns="http://www.w3.org/2000/svg" fill="none" viewBox="0.56 0.3 30 30">
<rect x="0.563477" y="0.301758" width="30" height="30" rx="3" fill="#3C589A"/>
<path d="M18.4044 9.62151L16.9305 9.61914C15.2747 9.61914 14.2046 10.717 14.2046 12.4162V13.7059H12.7227C12.5947 13.7059 12.491 13.8097 12.491 13.9377V15.8063C12.491 15.9343 12.5948 16.038 12.7227 16.038H14.2046V20.7529C14.2046 20.881 14.3083 20.9847 14.4364 20.9847H16.3698C16.4979 20.9847 16.6016 20.8809 16.6016 20.7529V16.038H18.3342C18.4623 16.038 18.566 15.9343 18.566 15.8063L18.5667 13.9377C18.5667 13.8762 18.5422 13.8174 18.4988 13.7738C18.4554 13.7303 18.3963 13.7059 18.3348 13.7059H16.6016V12.6126C16.6016 12.0872 16.7268 11.8204 17.4113 11.8204L18.4041 11.8201C18.5321 11.8201 18.6358 11.7162 18.6358 11.5883V9.85325C18.6358 9.72544 18.5322 9.62174 18.4044 9.62151Z" fill="white"/>
</svg>

<svg xmlns="http://www.w3.org/2000/svg" fill="none" viewBox="0.56 0.3 30 30"><rect x=".563" y=".302" width="30" height="30" rx="3" fill="#3C589A"/><path d="m18.404 9.622-1.474-.003c-1.655 0-2.725 1.098-2.725 2.797v1.29h-1.482a.232.232 0 0 0-.232.232v1.868c0 .128.104.232.232.232h1.482v4.715c0 .128.103.232.231.232h1.934a.232.232 0 0 0 .232-.232v-4.715h1.732a.232.232 0 0 0 .232-.232v-1.868a.232.232 0 0 0-.231-.232h-1.733v-1.093c0-.526.125-.793.81-.793h.992a.232.232 0 0 0 .232-.232V9.853a.232.232 0 0 0-.232-.231Z" fill="#fff"/></svg>
